X:1
T: The Irish Rover's Reel
C:
R:Reel
Q: 232
K:D
M:4/4
L:1/8
|:g|((3fga) ec dA AB|dA AF GE Eg|((3fga) ec dA AB|Ad eg fd dz|
((3fga) ec dA AB|dA AF GE Ez|FA BG Ac Bd|cd eg fd dz|
df Ad fd Ad|ce Ac eA ce|gf ga gb ag|fg ec d2 FA|
df Ad fd Ad|ce Ac e2 fg|fe dc d2 cB|AB de fd d:|
